assets/img/microillustration/error.svg

<?xml version="1.0" encoding="UTF-8"?>
<svg viewBox="0 0 106 106" version="1.1" xmlns="http://www.w3.org/2000/svg" xmlns:xlink="http://www.w3.org/1999/xlink">
    <title>4. Elements_Microillustrations/Error</title>
    <g id="4.-Elements_Microillustrations/Error" stroke="none" stroke-width="1" fill="none" fill-rule="evenodd">
        <g id="Content" transform="translate(11.000000, 17.000000)">
            <path d="M47.2014378,3.04597881 L82.8302746,65.0091733 C84.4820626,67.881848 83.4923383,71.5496498 80.6196635,73.2014378 C79.7097327,73.7246481 78.6784668,74 77.6288368,74 L6.3711632,74 C3.0574547,74 0.371163197,71.3137085 0.371163197,68 C0.371163197,66.95037 0.646515117,65.9191041 1.16972538,65.0091733 L36.7985622,3.04597881 C38.4503502,0.17330403 42.118152,-0.816420259 44.9908267,0.835367742 C45.9100952,1.36394709 46.6728585,2.12671039 47.2014378,3.04597881 Z" id="Triangle" fill="#EF0021"></path>
            <path d="M43.7352625,6.02804327 L78.10623,66.0055836 C78.6554311,66.9639426 78.323743,68.1860615 77.365384,68.7352625 C77.0626768,68.9087331 76.7198568,69 76.3709675,69 L7.62903246,69 C6.52446296,69 5.62903246,68.1045695 5.62903246,67 C5.62903246,66.6511108 5.72029937,66.3082908 5.89376995,66.0055836 L40.2647375,6.02804327 C40.8139385,5.06968425 42.0360574,4.73799616 42.9944164,5.28719719 C43.3028098,5.46392634 43.5585334,5.71964987 43.7352625,6.02804327 Z" id="Triangle" fill="#FFFFFF"></path>
            <path d="M42.866471,12.503868 L72.24893,63.5007726 C72.5246457,63.9793114 72.3602251,64.5907554 71.8816863,64.866471 C71.729851,64.9539527 71.5576932,65 71.382459,65 L12.617541,65 C12.0652563,65 11.617541,64.5522847 11.617541,64 C11.617541,63.8247658 11.6635883,63.652608 11.75107,63.5007726 L41.133529,12.503868 C41.4092446,12.0253293 42.0206886,11.8609087 42.4992274,12.1366243 C42.651849,12.2245591 42.7785363,12.3512464 42.866471,12.503868 Z" id="Triangle" fill="#FFDBE0"></path>
        </g>
        <g id="Group" transform="translate(50.371163, 43.035794)" fill="#000000">
            <rect id="Rectangle" x="0.727206604" y="0" width="4.36353057" height="21.8179438"></rect>
            <path d="M2.90911736,26.1817653 C1.30501509,26.1817653 0,27.4867804 0,29.0908826 C0,30.6949849 1.30501509,32 2.90911736,32 C4.51307415,32 5.81823472,30.6949849 5.81823472,29.0908826 C5.81823472,27.4867804 4.51321962,26.1817653 2.90911736,26.1817653 Z" id="Path"></path>
        </g>
    </g>
</svg>

<?xml version="1.0" encoding="UTF-8"?>
<svg version="1.1" viewBox="0 0 106 106" xmlns="http://www.w3.org/2000/svg">
<title>4. Elements_Microillustrations/Error</title>
<g fill="none" fill-rule="evenodd">
<g transform="translate(11 17)">
<path id="Triangle" d="m47.201 3.046 35.629 61.963c1.6518 2.8727 0.66206 6.5405-2.2106 8.1923-0.90993 0.52321-1.9412 0.79856-2.9908 0.79856h-71.258c-3.3137 0-6-2.6863-6-6 0-1.0496 0.27535-2.0809 0.79856-2.9908l35.629-61.963c1.6518-2.8727 5.3196-3.8624 8.1923-2.2106 0.91927 0.52858 1.682 1.2913 2.2106 2.2106z" fill="#EF0021"/>
<path id="a" d="m43.735 6.028 34.371 59.978c0.5492 0.95836 0.21751 2.1805-0.74085 2.7297-0.30271 0.17347-0.64553 0.26474-0.99442 0.26474h-68.742c-1.1046 0-2-0.89543-2-2 0-0.34889 0.091267-0.69171 0.26474-0.99442l34.371-59.978c0.5492-0.95836 1.7713-1.29 2.7297-0.74085 0.30839 0.17673 0.56412 0.43245 0.74085 0.74085z" fill="#fff"/>
<path d="m42.866 12.504 29.382 50.997c0.27572 0.47854 0.1113 1.09-0.36724 1.3657-0.15184 0.087482-0.32399 0.13353-0.49923 0.13353h-58.765c-0.55228 0-1-0.44772-1-1 0-0.17523 0.046047-0.34739 0.13353-0.49923l29.382-50.997c0.27572-0.47854 0.88716-0.64296 1.3657-0.36724 0.15262 0.087935 0.27931 0.21462 0.36724 0.36724z" fill="#FFDBE0"/>
</g>
<g transform="translate(50.371 43.036)" fill="#000">
<rect x=".72721" width="4.3635" height="21.818"/>
<path d="m2.9091 26.182c-1.6041 0-2.9091 1.305-2.9091 2.9091 0 1.6041 1.305 2.9091 2.9091 2.9091 1.604 0 2.9091-1.305 2.9091-2.9091 0-1.6041-1.305-2.9091-2.9091-2.9091z"/>
</g>
</g>
</svg>
